X: 24760
T: Maenpaan Heikin Valssi
R: waltz
M: 3/4
K: Gminor
A2 AA AA|B2 A2 G2|A2 F2 D2|G2 F2 D2|
A2 AA AA|B2 A2 GF|D2 DF AF|G6:|
A3G FA|d2 c2 d2|A3G FA|d2 c2 d2|
G2 F2 D2|B2 A2 GF|D2 DF AF|G6:|

